libs/ui/packages/crypto-icons/src/svg/BDL.svg

<svg width="24" height="24" viewBox="0 0 24 24" fill="none">
<path d="M6.99598 6.46275C6.98098 6.3525 7.08448 6.2865 7.14373 6.2115C7.88929 5.47382 8.6313 4.73256 9.36973 3.98775C9.35923 6.02475 9.37573 8.06175 9.36148 10.0987C10.8982 9.25125 12.834 9.21375 14.4135 9.97275C14.412 10.104 14.412 10.2345 14.412 10.3665C13.1512 9.6885 11.601 9.6015 10.2562 10.074C8.70898 10.6065 7.47598 11.9167 6.99373 13.476C6.99598 11.1375 6.99298 8.8005 6.99598 6.46275ZM17.0385 15.2092C16.9915 16.4491 16.4843 17.627 15.6157 18.513C14.799 19.3524 13.7147 19.88 12.5502 20.0047C11.3857 20.1293 10.2143 19.8431 9.23848 19.1955C8.12848 18.465 7.32598 17.28 7.07998 15.9735C6.86623 14.9385 7.01098 13.8397 7.45573 12.8835C7.96111 11.808 8.82876 10.9446 9.90673 10.4445C11.3197 9.7785 13.0417 9.83475 14.4097 10.5885C14.4015 11.709 14.4022 12.8295 14.4105 13.95C14.187 13.4872 13.8555 13.0732 13.4167 12.7987C12.549 12.2385 11.343 12.2647 10.5052 12.8722C9.58273 13.5067 9.16648 14.7652 9.53323 15.8235C9.86098 16.8667 10.8982 17.6325 11.9947 17.6205C13.0492 17.6467 14.067 16.9575 14.4442 15.9742C14.6842 15.417 14.6242 14.8012 14.6295 14.2117C14.634 11.1705 14.622 8.12925 14.6235 5.08875C14.6242 4.70625 14.631 4.32375 14.6085 3.94275C15.426 4.74825 16.236 5.5635 17.046 6.37725C17.0295 9.321 17.046 12.2647 17.0385 15.21V15.2092Z" fill="white"/>
<path d="M6.98158 6.47483C6.96658 6.36458 7.07008 6.29858 7.12933 6.22358C7.87488 5.4859 8.61689 4.74464 9.35533 3.99983C9.34483 6.03683 9.36133 8.07383 9.34708 10.1108C10.8838 9.26333 12.8196 9.22583 14.3991 9.98483C14.3976 10.1161 14.3976 10.2466 14.3976 10.3786C13.1368 9.70058 11.5866 9.61358 10.2418 10.0861C8.69458 10.6186 7.46158 11.9288 6.97933 13.4881C6.98158 11.1496 6.97858 8.81258 6.98158 6.47483ZM17.0241 15.2213C16.9771 16.4612 16.4699 17.6391 15.6013 18.5251C14.7846 19.3645 13.7003 19.8921 12.5358 20.0167C11.3713 20.1414 10.1999 19.8551 9.22408 19.2076C8.11408 18.4771 7.31158 17.2921 7.06558 15.9856C6.85183 14.9506 6.99658 13.8518 7.44133 12.8956C7.9467 11.8201 8.81436 10.9567 9.89233 10.4566C11.3053 9.79058 13.0273 9.84683 14.3953 10.6006C14.3871 11.7211 14.3878 12.8416 14.3961 13.9621C14.1726 13.4993 13.8411 13.0853 13.4023 12.8108C12.5346 12.2506 11.3286 12.2768 10.4908 12.8843C9.56833 13.5188 9.15208 14.7773 9.51883 15.8356C9.84658 16.8788 10.8838 17.6446 11.9803 17.6326C13.0348 17.6588 14.0526 16.9696 14.4298 15.9863C14.6698 15.4291 14.6098 14.8133 14.6151 14.2238C14.6196 11.1826 14.6076 8.14133 14.6091 5.10083C14.6098 4.71833 14.6166 4.33583 14.5941 3.95483C15.4116 4.76033 16.2216 5.57558 17.0316 6.38933C17.0151 9.33308 17.0316 12.2768 17.0241 15.2221V15.2213Z" fill="#E54C40"/>
</svg>

<svg width="24" height="24" viewBox="0 0 24 24" fill="none"><path fill="#fff" d="M6.996 6.463c-.015-.11.088-.176.148-.252Q8.262 5.106 9.37 3.989c-.01 2.037.006 4.074-.009 6.11 1.537-.847 3.473-.884 5.053-.125q-.003.196-.002.393c-1.26-.678-2.811-.764-4.156-.292-1.547.533-2.78 1.843-3.262 3.402.002-2.339-.001-4.676.002-7.013m10.043 8.746a5 5 0 0 1-1.423 3.304 5.02 5.02 0 0 1-6.378.682 5.02 5.02 0 0 1-2.158-3.222 5 5 0 0 1 .376-3.09 5.03 5.03 0 0 1 6.954-2.295 228 228 0 0 0 0 3.362c-.223-.463-.555-.877-.993-1.151-.868-.56-2.074-.534-2.912.073-.922.635-1.339 1.893-.972 2.951.328 1.044 1.365 1.81 2.462 1.797 1.054.027 2.072-.663 2.45-1.646.24-.557.18-1.173.184-1.762.005-3.041-.007-6.083-.005-9.123 0-.383.007-.765-.016-1.146.818.805 1.628 1.62 2.438 2.434-.017 2.944 0 5.888-.008 8.833"/><path fill="#e54c40" d="M6.982 6.475c-.015-.11.088-.176.147-.251Q8.248 5.117 9.355 4c-.01 2.037.006 4.074-.008 6.11 1.537-.847 3.473-.884 5.052-.125l-.001.394c-1.261-.678-2.811-.765-4.156-.293-1.547.533-2.78 1.843-3.263 3.402.003-2.338 0-4.675.003-7.013m10.042 8.746a5 5 0 0 1-1.423 3.304 5.02 5.02 0 0 1-6.377.683 5.02 5.02 0 0 1-2.158-3.222 5 5 0 0 1 .375-3.09 5.03 5.03 0 0 1 6.954-2.295 228 228 0 0 0 .001 3.361c-.223-.463-.555-.877-.994-1.151-.867-.56-2.073-.534-2.911.073-.923.635-1.339 1.893-.972 2.952.328 1.043 1.365 1.809 2.461 1.797 1.055.026 2.073-.663 2.45-1.647.24-.557.18-1.173.185-1.762.005-3.041-.007-6.083-.006-9.123 0-.383.008-.765-.015-1.146.818.805 1.628 1.62 2.438 2.434-.017 2.944 0 5.888-.008 8.833"/></svg>
